svg/24/logo-adobe-creative-cloud.svg

<svg width="24" height="24" viewBox="0 0 24 24" fill="currentColor" xmlns="http://www.w3.org/2000/svg"><path d="M5.79216 12.8153C5.79216 14.8537 7.43831 16.5076 9.47677 16.5076H11.4537C11.4537 16.5076 10.246 15.7768 9.81523 15.1768V15.1691H9.51523C8.21523 15.1691 7.11523 14.0768 7.11523 12.7845C7.11523 12.223 7.31523 11.6768 7.68446 11.2537C8.53062 10.2691 10.0152 10.1614 10.9998 11.0076L12.5075 12.5614C12.7614 12.823 13.1768 12.8307 13.4383 12.5768C13.6998 12.323 13.7075 11.9076 13.4537 11.646L11.9229 10.0768L11.9075 10.0614C11.2383 9.46142 10.3614 9.13065 9.46139 9.13065C7.43062 9.14604 5.79216 10.7922 5.79216 12.8153Z"/><path d="M13.8768 16.5383C15.0691 16.5307 16.2075 16.046 17.0306 15.1845C17.8691 14.3307 18.3306 13.1768 18.3306 11.9845C18.3229 9.51527 16.3306 7.51527 13.8614 7.51527C12.7229 7.51527 11.6922 7.89219 10.8614 8.66911H10.8537C10.8691 8.67424 10.8981 8.68621 10.9272 8.69817C10.9417 8.70416 10.9563 8.71014 10.9691 8.71527C11.1306 8.7845 11.4075 8.91527 11.4998 8.96911C11.5922 9.01527 11.6998 9.07681 11.7998 9.13834C11.9614 9.23834 12.1075 9.33065 12.1152 9.33834C12.6537 8.96142 13.1998 8.83065 13.8614 8.83065C15.5998 8.83834 17.0152 10.246 17.0152 11.9845C17.0152 12.8307 16.6845 13.646 16.0922 14.2537C15.5152 14.8691 14.7152 15.2153 13.8768 15.2153C13.0922 15.2153 12.2768 14.8537 11.6383 14.2153L9.63062 12.2076C9.50754 12.0768 9.33831 12.0076 9.16139 12.0076C8.98446 12.0076 8.82293 12.0691 8.69985 12.1922C8.446 12.446 8.43831 12.8614 8.69216 13.123L10.7075 15.1537C11.5922 16.0307 12.746 16.5383 13.8768 16.5383Z"/><path fill-rule="evenodd" clip-rule="evenodd" d="M17.9609 3H6.03779C4.23009 3 2.76855 4.46154 2.76855 6.26923V17.7308C2.76855 19.5385 4.23009 21 6.03779 21H17.9609C19.7686 21 21.2301 19.5385 21.2301 17.7308V6.26923C21.2301 4.46154 19.7686 3 17.9609 3ZM13.7999 6.7845C15.2306 6.77681 16.6075 7.36911 17.5845 8.42296C18.4922 9.39988 18.9998 10.6768 19.0152 12.0076C19.0152 14.8999 16.6768 17.2614 13.7999 17.2614H9.56139C8.346 17.2614 7.19216 16.7614 6.36139 15.8768C5.56908 15.0307 5.12293 13.923 5.11523 12.7691C5.11523 10.6307 6.81523 8.32296 9.56139 8.32296C9.72293 8.32296 9.89216 8.33834 10.0614 8.35373C10.9768 7.3845 12.3998 6.7845 13.7999 6.7845Z"/></svg>

<svg xmlns="http://www.w3.org/2000/svg" width="24" height="24" fill="currentColor" viewBox="0 0 24 24">
  <path d="M5.793 12.815a3.687 3.687 0 0 0 3.685 3.693h1.977s-1.208-.731-1.639-1.331v-.008h-.3c-1.3 0-2.4-1.092-2.4-2.385a2.35 2.35 0 0 1 3.885-1.777l1.508 1.554a.657.657 0 1 0 .946-.915l-1.531-1.57-.015-.015c-.67-.6-1.547-.93-2.447-.93a3.692 3.692 0 0 0-3.669 3.684Z"/>
  <path d="M13.878 16.538a4.395 4.395 0 0 0 3.154-1.354 4.567 4.567 0 0 0 1.3-3.2 4.473 4.473 0 0 0-4.47-4.469c-1.138 0-2.169.377-3 1.154h-.007a3.559 3.559 0 0 0 .115.046 7.168 7.168 0 0 1 1.146.623c.539-.377 1.085-.507 1.746-.507a3.163 3.163 0 0 1 3.154 3.154 3.25 3.25 0 0 1-.923 2.269 3.033 3.033 0 0 1-2.215.961c-.785 0-1.6-.361-2.239-1l-2.007-2.007a.64.64 0 0 0-.47-.2.638.638 0 0 0-.461.184.664.664 0 0 0-.008.931l2.016 2.03c.884.878 2.038 1.385 3.169 1.385Z"/>
  <path fill-rule="evenodd" d="M17.962 3H6.039a3.266 3.266 0 0 0-3.27 3.27v11.46A3.266 3.266 0 0 0 6.04 21h11.923a3.267 3.267 0 0 0 3.27-3.27V6.27A3.267 3.267 0 0 0 17.961 3ZM13.8 6.785a5.127 5.127 0 0 1 3.784 1.638 5.353 5.353 0 0 1 1.431 3.585c0 2.892-2.338 5.253-5.215 5.253H9.562c-1.215 0-2.369-.5-3.2-1.384a4.592 4.592 0 0 1-1.246-3.108c0-2.138 1.7-4.446 4.446-4.446.162 0 .331.015.5.03.916-.968 2.339-1.568 3.739-1.568Z" clip-rule="evenodd"/>
</svg>
